!!!COM: Jules Massenet
!!!CNT: Francais
!!!TXO: Francais
!!!OTL: La Vie d'Une Rose
!!!LYR: Jules Rubelle
!!!ENC: Jacob Pegg
!!!YOR: Romantic French Song 1830-1870 - David Tunley, ed.,
!!!YOR: New York: Garland Publishing, Inc., 1995, Vol. 6
!!!ODT: 1868/
!!NB: Vocal melody and text only encoded.
!!NB: First instance of melodic material only encoded.
**kern	**silbe
*clef G2	*
*k[f#c#g#d#]	*
*M2/4	*
!!created: 12/20/03 14:40
!!proofed and posted: 1/22/04 0:26
!!edit time: 96 min.
=3	=3
12r	.
12r	.
{12cc#	{Par
(12cc#	un
12cc#	beau
12cc#)	ma-
=4	=4
(6ff#	-tin
12ee)	Pim-
(ddnq	|
eeq	|
12ddn)	-pante
(12cc#	et
12b#)	ra-
=5	=5
(12cc#	-vi-
12cc#	-e
12cc#)	J'ai
(12cc#	re-
12b#	-c5u
12cc#)	la
=6	=6
4dd#	vi-
8dd#}	-e}
8r	.
=7	=7
12r	.
12r	.
{12dd#	{J'ai
12cc#	re-
12b	-c5u
12a#	la
=8	=8
!! m. 8 encoded exactly as written.
(12cc#	vi-
12b	-e
12a#)	Dans
(anq	|
bq	|
12an)	le
12.g#	vert
24f	sa-
=9	=9
4e}	-tin.}
4r	.
!!10-14 piano only
=15	=15
4r	.
{8g#	{De
16cc#	ma
16cc#	beau-
=16	=16
8b	-te/
8f#	que
8a	j’e/-
8g#	-tais
=17	=17
(f#q	fie\-
g#q	|
8f#)	|
8e}	-re!}
4r	.
=18	=18
16r	.
{16g#	{Pour
16b	mieux
16b	re/-
16a	-pan-
16a	-dre
16cc#	ma
16cc#	sen-
=19	=19
8b}	-teur.}
8r	.
4r	.
!!19-21 repeat of prior phrase
=22	=22
16r	.
{16b	{De/-
16b	-ja\
16b	le
16cc#	ze/-
16cc#	-phir
16g#	ten-
16g#	-ta-
=23	=23
4b	-teur
8.a#	Mur-
16a#	-mu-
=24	=24
4g#}	-rait:}
4r	.
=25	=25
{4g#	{o^
8g#	ma
16g#	bel-
16g#	-le
=26	=26
2b#	ro-
=27	=27
4b#}	-se,}
8r	.
{16bn	{Ils
16bn	se-
=28	=28
8cc#	-ront
8dd#	bien
(16ee	longs
16b)	|
16a	tes
16g#	beaux
=29	=29
4.cc#}	jours}
{8b	{Si
=30	=30
8b	tu
8a	n’e/-
8a	-cou-
8g#}	-tes}
=31	=31
8r	.
{(bq	{les
16a)	|
16g#	a-
[4ee	-mours
=32	=32
8ee]}	|}
{(8ee	{Qui
8ff#	vont
8ee)	t’ad-
=33	=33
16dd#	-mi-
16cc#	-rer
16b	fraiche
16b#	e/-
(4cc#	-clo-
=34	=34
2bn)	|
=35	=35
8e}	-se.}
8r	.
4r	.
!!rest, repeat material until
=90	=90
12r	.
12r	.
{12e	{Et
(12e	vers
12e	le
12e)	ma-
=91	=91
12e}	-tin}
12r	.
{12e	{A
(12e	l’au-
12e	-be
12e)	ra-
=92	=92
(12e	-vi-
12e	-e
12e)	S’ef-
(12e	-feuil-
12e	-la
12e)	ma
=93	=93
(2ccn	vi-
=94	=94
12b)}	-e}
12r	.
{12b	{Dans
(12b	le
12b	blanc
12b)	sa-
=95	=95
[2ee	-tin.
=96	=96
4ee]}	|}
4r	.
*-	*-
